X: 128
M: 9/8
L: 1/8
K: G
|:\
d2D ed^c d2D | e2c A2a {g}f3 |\
gba gfe f2^c | eba gfe d3 :|
|:\
b2g fed g2B | edc BAG [A3F3D3] |\

